packages/foundations/assets/icons/functional/images/notification/bell_disabled_20.svg

<svg width="20" height="20" viewBox="0 0 20 20" fill="none" xmlns="http://www.w3.org/2000/svg">
<g clip-path="url(#clip0_187_139)">
<path fill-rule="evenodd" clip-rule="evenodd" d="M15.6521 8.561L15.6522 12.1268C15.6522 13.2369 15.7756 13.5452 16.3104 13.97L16.5309 14.1366C16.8433 14.3513 16.9995 14.6634 16.9995 14.9756C16.9995 15.4439 16.6494 15.9707 16.1013 15.9707H12.0009V15.9902C12.0009 17.1024 11.1027 18 9.98966 18C9.03169 18 8.12385 17.2308 7.99433 16.2186L10.2141 13.999L13.9144 14L13.8401 13.7033C13.7277 13.2059 13.6713 12.6748 13.662 11.8256L13.6601 10.553L15.6521 8.561ZM9.98966 2C11.899 2 13.4507 2.7888 14.4437 4.14131L15.2924 3.29289C15.6829 2.90237 16.316 2.90237 16.7066 3.29289C17.0671 3.65338 17.1351 4.29594 16.7066 4.70711C12.7083 8.709 8.70832 12.709 4.70657 16.7071C4.31604 17.0976 3.68288 17.0976 3.29235 16.7071C2.93187 16.3466 2.86645 15.7853 3.29235 15.2929C3.46425 15.1173 3.63762 14.9434 3.81246 14.771L3.85122 14.687C4.14109 14.0277 4.32726 13.3003 4.32726 12.0683V8.49755C4.32726 4.61467 6.53366 2 9.98966 2ZM10.0093 4.00979C7.80276 4.00979 6.33836 5.55121 6.33836 8.24393V11.5805C6.33836 11.823 6.33459 12.0467 6.32577 12.2586L12.9794 5.60459C12.3573 4.56997 11.3334 4.00979 10.0093 4.00979Z" fill="#1A1C1F"/>
</g>
<defs>
<clipPath id="clip0_187_139">
<rect width="20" height="20" fill="white"/>
</clipPath>
</defs>
</svg>

<svg xmlns="http://www.w3.org/2000/svg" width="20" height="20" fill="none"><g clip-path="url(#a)"><path fill="#1A1C1F" fill-rule="evenodd" d="M15.652 8.561v3.566c0 1.11.124 1.418.658 1.843l.22.167c.313.214.47.526.47.839 0 .468-.35.995-.899.995h-4.1v.02C12 17.101 11.103 18 9.99 18c-.958 0-1.866-.77-1.996-1.781l2.22-2.22 3.7.001-.074-.297c-.112-.497-.169-1.028-.178-1.877l-.002-1.273zM9.99 2c1.909 0 3.46.789 4.454 2.141l.848-.848a1 1 0 0 1 1.415 0c.36.36.428 1.003 0 1.414q-5.998 6.003-12 12a1 1 0 0 1-1.415 0c-.36-.36-.426-.922 0-1.414q.259-.264.52-.522l.04-.084c.29-.66.475-1.387.475-2.619v-3.57C4.327 4.615 6.534 2 9.99 2m.02 2.01c-2.207 0-3.672 1.541-3.672 4.234v3.337q0 .361-.012.678l6.653-6.654c-.622-1.035-1.646-1.595-2.97-1.595" clip-rule="evenodd"/></g><defs><clipPath id="a"><path fill="#fff" d="M0 0h20v20H0z"/></clipPath></defs></svg>
